file/dominion-energy.svg

<svg clip-rule="evenodd" fill-rule="evenodd" stroke-linejoin="round" stroke-miterlimit="1.41421" viewBox="0 0 560 400" xmlns="http://www.w3.org/2000/svg"><g fill-rule="nonzero" transform="matrix(.986447 0 0 -.986447 -1405.19 2097.5)"><path d="m0 0c-13.391 9.66-30.988 13.164-47.996 7.963l-38.808-11.863v-22.636z" fill="#2c6cbe" transform="translate(1612.68 1977.49)"/><path d="m0 0c-2.782 7.279-6.988 13.659-12.197 18.909l-93.634-28.626v-22.64z" fill="#2c6cbe" transform="translate(1631.7 1952.75)"/><path d="m0 0c1.383 7.268 1.304 14.906-.461 22.5l-108.045-33.037v-22.636z" fill="#2c6cbe" transform="translate(1634.38 1923.01)"/><path d="m0 0c17.008 5.201 29.639 17.945 35.335 33.441l-106.107-32.439v-22.64z" fill="#2c6cbe" transform="translate(1596.65 1880.91)"/><g fill="#231f20"><path d="m0 0c6.104 0 9.513 3.889 9.513 10.05 0 6.225-3.409 10.114-9.513 10.114h-3.95v-20.164zm-13.402 28.422h13.878c11.55 0 18.55-7.181 18.55-18.372 0-11.188-7-18.369-18.55-18.369h-13.878z" transform="translate(1675.67 1940.93)"/><path d="m0 0c-2.876 0-4.49-2.634-4.49-6.342s1.614-6.282 4.49-6.282c2.929 0 4.543 2.574 4.543 6.282s-1.614 6.342-4.543 6.342m0-20.406c-8.141 0-13.765 5.749-13.765 14.064 0 8.319 5.624 14.06 13.765 14.06 8.198 0 13.761-5.741 13.761-14.06 0-8.315-5.563-14.064-13.761-14.064" transform="translate(1711.08 1952.42)"/><path d="m0 0c5.624 0 9.094-3.829 9.094-9.876v-17.65h-9.393v15.379c0 2.271-.956 3.889-3.053 3.889-1.614 0-2.994-1.017-3.47-2.873v-16.395h-9.335v15.379c0 2.271-.957 3.889-3.051 3.889-1.613 0-3.05-1.017-3.473-2.873v-16.395h-9.392v26.925h9.392v-2.211c1.38 1.674 3.957 2.812 6.943 2.812 3.409 0 5.809-1.315 7.419-3.231 1.622 1.674 4.366 3.231 8.319 3.231" transform="translate(1760.56 1960.14)"/><path d="m1774.76 1932.61h9.392v26.925h-9.392z"/><path d="m0 0h9.396v-2.332c1.493 1.674 4.127 2.933 7.238 2.933 5.986 0 9.517-3.889 9.517-9.876v-17.65h-9.34v15.379c0 2.214-1.134 3.828-3.53 3.828-1.855 0-3.405-1.077-3.885-2.933v-16.274h-9.396z" transform="translate(1789.23 1959.54)"/><path d="m1820.45 1932.61h9.392v26.925h-9.392z"/><path d="m0 0c-2.872 0-4.486-2.634-4.486-6.342s1.614-6.282 4.486-6.282c2.933 0 4.547 2.574 4.547 6.282s-1.614 6.342-4.547 6.342m0-20.406c-8.137 0-13.765 5.749-13.765 14.064 0 8.319 5.628 14.06 13.765 14.06 8.198 0 13.761-5.741 13.761-14.06 0-8.315-5.563-14.064-13.761-14.064" transform="translate(1847.26 1952.42)"/><path d="m0 0h9.4v-2.332c1.489 1.674 4.119 2.933 7.234 2.933 5.983 0 9.513-3.889 9.513-9.876v-17.65h-9.336v15.379c0 2.214-1.137 3.828-3.526 3.828-1.859 0-3.413-1.077-3.885-2.933v-16.274h-9.4z" transform="translate(1864.67 1959.54)"/><path d="m1820.45 1962.66h9.392v6.697h-9.392z"/><path d="m1774.76 1962.66h9.392v6.697h-9.392z"/><path d="m0 0h9.396v-2.332c1.497 1.674 4.123 2.933 7.238 2.933 5.986 0 9.513-3.889 9.513-9.876v-17.647h-9.332v15.376c0 2.214-1.138 3.828-3.53 3.828-1.856 0-3.409-1.077-3.889-2.929v-16.275h-9.396z" transform="translate(1693.37 1915.54)"/><path d="m0 0c-1.289.552-2.271.797-3.723.797-2.252 0-4.596-1.254-4.955-3.677v-15.795h-9.396v26.922h9.396v-2.393c1.315 1.796 3.409 2.994 6.104 2.994 1.194 0 2.151-.242 2.574-.48z" transform="translate(1772.19 1907.29)"/><path d="m0 0 4.218 11.059-10.05 26.268h9.755l5.144-15.319 5.027 15.319h9.335l-14.158-37.327z" transform="translate(1810.54 1878.29)"/><path d="m0 0c-3.704 0-5.303 2.812-5.303 6.225s1.474 6.096 4.967 6.096c1.795 0 3.753-1.372 4.471-2.57v-7.12c-.718-1.199-2.287-2.631-4.135-2.631m13.41 18.849h-9.275v-2.034c-1.198 1.436-3.413 2.634-6.342 2.634-7.601 0-11.91-5.805-11.91-13.224s4.309-13.285 11.91-13.285c2.642 0 4.701 1.02 5.953 2.234 0 0 .181.181.241.249l.008-2.045c-.144-3.575-3.186-5.219-6.694-5.219-3.707 0-6.64.96-9.388 3.292v-8.157c2.585-1.772 5.923-2.271 9.695-2.271 8.613 0 15.772 4.29 15.772 14.222z" transform="translate(1788.31 1896.76)"/><path d="m0 0h14.271v8.077h-14.271v5.749h16.811v8.258h-26.267v-36.741h26.267v8.319h-16.811z" transform="translate(1671.72 1903.27)"/><path d="m0 0c.34 3.148 2.623 4.577 4.66 4.577 2.034 0 4.464-1.406 4.849-4.577zm4.607 11.35c-8.024 0-13.689-6.278-13.689-14.196 0-9.804 5.851-14.234 14.831-14.234 4.002 0 7.226.832 9.713 2.019v6.648c-3.084-1.656-5.926-2.09-8.099-2.09-4.252 0-7.121 1.942-7.299 5.367h18.187c.046.65.046 1.035.046 1.64 0 7.971-4.309 14.846-13.69 14.846" transform="translate(1732.23 1904.95)"/><path d="m0 0c-2.997 0-5.424-2.434-5.424-5.431s2.427-5.428 5.424-5.428c3.005 0 5.439 2.431 5.439 5.428s-2.434 5.431-5.439 5.431m.008-10.19c-2.631 0-4.763 2.132-4.763 4.759s2.132 4.762 4.763 4.762c2.63 0 4.762-2.135 4.762-4.762s-2.132-4.759-4.762-4.759" transform="translate(1843.04 1918.37)"/><path d="m0 0c0 .881-.472 1.398-1.878 1.398h-2.317v-5.295h.601v2.449h1.239l1.516-2.449h.779l-1.607 2.449c.941.023 1.667.409 1.667 1.448m-2.555-.847h-1.039v1.652h1.561c.657 0 1.432-.098 1.432-.786 0-.99-1.206-.866-1.954-.866" transform="translate(1845.32 1914.21)"/></g></g></svg>

<?xml version="1.0" encoding="UTF-8" standalone="no"?>
<!DOCTYPE svg PUBLIC "-//W3C//DTD SVG 1.1//EN" "http://www.w3.org/Graphics/SVG/1.1/DTD/svg11.dtd">
<svg width="100%" height="100%" viewBox="0 0 560 400" version="1.1" xmlns="http://www.w3.org/2000/svg" xmlns:xlink="http://www.w3.org/1999/xlink" xml:space="preserve" xmlns:serif="http://www.serif.com/" style="fill-rule:evenodd;clip-rule:evenodd;stroke-linejoin:round;stroke-miterlimit:1.41421;">
    <g id="g4700" transform="matrix(0.986447,0,0,-0.986447,-1405.19,2097.5)">
        <g id="path4708" transform="matrix(1,0,0,1,1612.68,1977.49)">
            <path d="M0,0C-13.391,9.66 -30.988,13.164 -47.996,7.963L-86.804,-3.9L-86.804,-26.536L0,0Z" style="fill:rgb(44,108,190);fill-rule:nonzero;"/>
        </g>
        <g id="path4712" transform="matrix(1,0,0,1,1631.7,1952.75)">
            <path d="M0,0C-2.782,7.279 -6.988,13.659 -12.197,18.909L-105.831,-9.717L-105.831,-32.357L0,0Z" style="fill:rgb(44,108,190);fill-rule:nonzero;"/>
        </g>
        <g id="path4716" transform="matrix(1,0,0,1,1634.38,1923.01)">
            <path d="M0,0C1.383,7.268 1.304,14.906 -0.461,22.5L-108.506,-10.537L-108.506,-33.173L0,0Z" style="fill:rgb(44,108,190);fill-rule:nonzero;"/>
        </g>
        <g id="path4720" transform="matrix(1,0,0,1,1596.65,1880.91)">
            <path d="M0,0C17.008,5.201 29.639,17.945 35.335,33.441L-70.772,1.002L-70.772,-21.638L0,0Z" style="fill:rgb(44,108,190);fill-rule:nonzero;"/>
        </g>
        <g id="path4724" transform="matrix(1,0,0,1,1675.67,1940.93)">
            <path d="M0,0C6.104,0 9.513,3.889 9.513,10.05C9.513,16.275 6.104,20.164 0,20.164L-3.95,20.164L-3.95,0L0,0ZM-13.402,28.422L0.476,28.422C12.026,28.422 19.026,21.241 19.026,10.05C19.026,-1.138 12.026,-8.319 0.476,-8.319L-13.402,-8.319L-13.402,28.422Z" style="fill:rgb(35,31,32);fill-rule:nonzero;"/>
        </g>
        <g id="path4728" transform="matrix(1,0,0,1,1711.08,1952.42)">
            <path d="M0,0C-2.876,0 -4.49,-2.634 -4.49,-6.342C-4.49,-10.05 -2.876,-12.624 0,-12.624C2.929,-12.624 4.543,-10.05 4.543,-6.342C4.543,-2.634 2.929,0 0,0M0,-20.406C-8.141,-20.406 -13.765,-14.657 -13.765,-6.342C-13.765,1.977 -8.141,7.718 0,7.718C8.198,7.718 13.761,1.977 13.761,-6.342C13.761,-14.657 8.198,-20.406 0,-20.406" style="fill:rgb(35,31,32);fill-rule:nonzero;"/>
        </g>
        <g id="path4732" transform="matrix(1,0,0,1,1760.56,1960.14)">
            <path d="M0,0C5.624,0 9.094,-3.829 9.094,-9.876L9.094,-27.526L-0.299,-27.526L-0.299,-12.147C-0.299,-9.876 -1.255,-8.258 -3.352,-8.258C-4.966,-8.258 -6.346,-9.275 -6.822,-11.131L-6.822,-27.526L-16.157,-27.526L-16.157,-12.147C-16.157,-9.876 -17.114,-8.258 -19.208,-8.258C-20.821,-8.258 -22.258,-9.275 -22.681,-11.131L-22.681,-27.526L-32.073,-27.526L-32.073,-0.601L-22.681,-0.601L-22.681,-2.812C-21.301,-1.138 -18.724,0 -15.738,0C-12.329,0 -9.929,-1.315 -8.319,-3.231C-6.697,-1.557 -3.953,0 0,0" style="fill:rgb(35,31,32);fill-rule:nonzero;"/>
        </g>
        <rect id="path4734" x="1774.76" y="1932.61" width="9.392" height="26.925" style="fill:rgb(35,31,32);fill-rule:nonzero;"/>
        <g id="path4738" transform="matrix(1,0,0,1,1789.23,1959.54)">
            <path d="M0,0L9.396,0L9.396,-2.332C10.889,-0.658 13.523,0.601 16.634,0.601C22.62,0.601 26.151,-3.288 26.151,-9.275L26.151,-26.925L16.811,-26.925L16.811,-11.546C16.811,-9.332 15.677,-7.718 13.281,-7.718C11.426,-7.718 9.876,-8.795 9.396,-10.651L9.396,-26.925L0,-26.925L0,0Z" style="fill:rgb(35,31,32);fill-rule:nonzero;"/>
        </g>
        <rect id="path4740" x="1820.45" y="1932.61" width="9.392" height="26.925" style="fill:rgb(35,31,32);fill-rule:nonzero;"/>
        <g id="path4744" transform="matrix(1,0,0,1,1847.26,1952.42)">
            <path d="M0,0C-2.872,0 -4.486,-2.634 -4.486,-6.342C-4.486,-10.05 -2.872,-12.624 0,-12.624C2.933,-12.624 4.547,-10.05 4.547,-6.342C4.547,-2.634 2.933,0 0,0M0,-20.406C-8.137,-20.406 -13.765,-14.657 -13.765,-6.342C-13.765,1.977 -8.137,7.718 0,7.718C8.198,7.718 13.761,1.977 13.761,-6.342C13.761,-14.657 8.198,-20.406 0,-20.406" style="fill:rgb(35,31,32);fill-rule:nonzero;"/>
        </g>
        <g id="path4748" transform="matrix(1,0,0,1,1864.67,1959.54)">
            <path d="M0,0L9.4,0L9.4,-2.332C10.889,-0.658 13.519,0.601 16.634,0.601C22.617,0.601 26.147,-3.288 26.147,-9.275L26.147,-26.925L16.811,-26.925L16.811,-11.546C16.811,-9.332 15.674,-7.718 13.285,-7.718C11.426,-7.718 9.872,-8.795 9.4,-10.651L9.4,-26.925L0,-26.925L0,0Z" style="fill:rgb(35,31,32);fill-rule:nonzero;"/>
        </g>
        <rect id="path4750" x="1820.45" y="1962.66" width="9.392" height="6.697" style="fill:rgb(35,31,32);fill-rule:nonzero;"/>
        <rect id="path4752" x="1774.76" y="1962.66" width="9.392" height="6.697" style="fill:rgb(35,31,32);fill-rule:nonzero;"/>
        <g id="path4756" transform="matrix(1,0,0,1,1693.37,1915.54)">
            <path d="M0,0L9.396,0L9.396,-2.332C10.893,-0.658 13.519,0.601 16.634,0.601C22.62,0.601 26.147,-3.288 26.147,-9.275L26.147,-26.922L16.815,-26.922L16.815,-11.546C16.815,-9.332 15.677,-7.718 13.285,-7.718C11.429,-7.718 9.876,-8.795 9.396,-10.647L9.396,-26.922L0,-26.922L0,0Z" style="fill:rgb(35,31,32);fill-rule:nonzero;"/>
        </g>
        <g id="path4760" transform="matrix(1,0,0,1,1772.19,1907.29)">
            <path d="M0,0C-1.289,0.552 -2.271,0.797 -3.723,0.797C-5.975,0.797 -8.319,-0.457 -8.678,-2.88L-8.678,-18.675L-18.074,-18.675L-18.074,8.247L-8.678,8.247L-8.678,5.854C-7.363,7.65 -5.269,8.848 -2.574,8.848C-1.38,8.848 -0.423,8.606 0,8.368L0,0Z" style="fill:rgb(35,31,32);fill-rule:nonzero;"/>
        </g>
        <g id="path4764" transform="matrix(1,0,0,1,1810.54,1878.29)">
            <path d="M0,0L4.218,11.059L-5.832,37.327L3.923,37.327L9.067,22.008L14.094,37.327L23.429,37.327L9.271,0L0,0Z" style="fill:rgb(35,31,32);fill-rule:nonzero;"/>
        </g>
        <g id="path4768" transform="matrix(1,0,0,1,1788.31,1896.76)">
            <path d="M0,0C-3.704,0 -5.303,2.812 -5.303,6.225C-5.303,9.638 -3.829,12.321 -0.336,12.321C1.459,12.321 3.417,10.949 4.135,9.751L4.135,2.631C3.417,1.432 1.848,0 0,0M13.41,18.849L4.135,18.849L4.135,16.815C2.937,18.251 0.722,19.449 -2.207,19.449C-9.808,19.449 -14.117,13.644 -14.117,6.225C-14.117,-1.194 -9.808,-7.06 -2.207,-7.06C0.435,-7.06 2.494,-6.04 3.746,-4.826C3.746,-4.826 3.927,-4.645 3.987,-4.577L3.995,-6.622C3.851,-10.197 0.809,-11.841 -2.699,-11.841C-6.406,-11.841 -9.339,-10.881 -12.087,-8.549L-12.087,-16.706C-9.502,-18.478 -6.164,-18.977 -2.392,-18.977C6.221,-18.977 13.38,-14.687 13.38,-4.755L13.41,18.849Z" style="fill:rgb(35,31,32);fill-rule:nonzero;"/>
        </g>
        <g id="path4772" transform="matrix(1,0,0,1,1671.72,1903.27)">
            <path d="M0,0L14.271,0L14.271,8.077L0,8.077L0,13.826L16.811,13.826L16.811,22.084L-9.456,22.084L-9.456,-14.657L16.811,-14.657L16.811,-6.338L0,-6.338L0,0Z" style="fill:rgb(35,31,32);fill-rule:nonzero;"/>
        </g>
        <g id="path4776" transform="matrix(1,0,0,1,1732.23,1904.95)">
            <path d="M0,0C0.34,3.148 2.623,4.577 4.66,4.577C6.694,4.577 9.124,3.171 9.509,0L0,0ZM4.607,11.35C-3.417,11.35 -9.082,5.072 -9.082,-2.846C-9.082,-12.65 -3.231,-17.08 5.749,-17.08C9.751,-17.08 12.975,-16.248 15.462,-15.061L15.462,-8.413C12.378,-10.069 9.536,-10.503 7.363,-10.503C3.111,-10.503 0.242,-8.561 0.064,-5.136L18.251,-5.136C18.297,-4.486 18.297,-4.101 18.297,-3.496C18.297,4.475 13.988,11.35 4.607,11.35" style="fill:rgb(35,31,32);fill-rule:nonzero;"/>
        </g>
        <g id="path4780" transform="matrix(1,0,0,1,1843.04,1918.37)">
            <path d="M0,0C-2.997,0 -5.424,-2.434 -5.424,-5.431C-5.424,-8.428 -2.997,-10.859 0,-10.859C3.005,-10.859 5.439,-8.428 5.439,-5.431C5.439,-2.434 3.005,0 0,0M0.008,-10.19C-2.623,-10.19 -4.755,-8.058 -4.755,-5.431C-4.755,-2.804 -2.623,-0.669 0.008,-0.669C2.638,-0.669 4.77,-2.804 4.77,-5.431C4.77,-8.058 2.638,-10.19 0.008,-10.19" style="fill:rgb(35,31,32);fill-rule:nonzero;"/>
        </g>
        <g id="path4784" transform="matrix(1,0,0,1,1845.32,1914.21)">
            <path d="M0,0C0,0.881 -0.472,1.398 -1.878,1.398L-4.195,1.398L-4.195,-3.897L-3.594,-3.897L-3.594,-1.448L-2.355,-1.448L-0.839,-3.897L-0.06,-3.897L-1.667,-1.448C-0.726,-1.425 0,-1.039 0,0M-2.555,-0.847L-3.594,-0.847L-3.594,0.805L-2.033,0.805C-1.376,0.805 -0.601,0.707 -0.601,0.019C-0.601,-0.971 -1.807,-0.847 -2.555,-0.847" style="fill:rgb(35,31,32);fill-rule:nonzero;"/>
        </g>
    </g>
</svg>
